X: 2
T: Fasten The Leg In Her
R: jig
M: 6/8
L: 1/8
K: Gmaj
~B3 BAB|GBd gdB|~A3 AGA|Bee dBA|~B3 BAB|GBd ~g3|efg fag|1 fed edc:|2 fed e2f||~g3 ~f3|ede gdB|~A3 AGA|Bee def|~g3 ~f3|ede gdB|def gag|fed e2f|~g3 ~f3|ede gdB|~A3 AGA|Bee dBA|~B3 BAB|GBd ~g3|efg fag|fed edc||BBB ABB|GBd gdB|AAA GAA|Bee dBA|BBB ABB|GBd gfg|efg fag|1 fed edc:|2 fed e2f||gee aee|gdd edB|AAA AGA|Bee def|gee aee|gdd edB|def gag|fed e2f|gee aee|gdd edB|AAA AGA|Bee dBA|BBB ABB|GBd gfg|efg fag|fed edc||


Tune 2838	Setting 16049

